X: 37589
T: Smiling Nannette
R: reel
M: 4/4
K: Gmajor
|:D|G2BG cAGF|GBdd d2Bd|dcAc cBGB|cAGFG2z:|
d|dcBc dgfe|dcBcd2g2|g2eg gfdf|fed^c d=cBA|
G2BG cAGF|GBdd d2Bd|dcAc cBGB|cAGF G2z||

